X:1
T:Title
%%score { 1 | 2 }
L:1/8
Q:1/4=100
M:4/4
K:Bb
V:1 treble nm="Grand Piano"
V:2 bass 
V:1
 [DB]2 [B,D]>[CE] [DF]2 [DF]F | F2 GA [DB]2 [DF]2 | [DB]2 [Fd]>[Ec] [DB]2 [Ec][Fd] | %3
w: W.~H.~Doane * * * * *|||
 [Fc]2 [B,=EG][B,EA] [A,F]4 | [B,DB]2[K:bass] [F,B,D]>[F,CE][K:treble] [DF]2 [DF]F | %5
w: ||
 F2 GA [DB]2 [Fd]2 | [Gc]2 [Gc][Gd] [Ee]2 [Fd]c | B2 [CA][Ec] [DB]4 | [Fd]2 [Fd]2 [Fd]3 [Fd] | %9
w: ||||
 [Ge][Fd][Ge][Fd] [Fd]>[Ec] [DB]2 | c2 c2 c3 c | dcdc c>B A2 | [DF]2 [DB]>[Ec] [Fd]2 [FB]2 | %13
w: ||||
 [EG]2 [Gc]>[Gd] [Ge]2 c2 | B3 c BF d>c | B2 [CA]2 [DB]4 |] %16
w: |||
V:2
 [B,,F,]2 [B,,F,]>[B,,F,] [B,,B,]2 [B,,B,][D,B,D] | [F,A,C]2 [F,CE][F,CE] [B,,B,]2 [B,,B,]2 | %2
 [B,,B,]2 [B,,B,]>[B,,B,] [B,,B,]2 [B,,B,][B,,B,] | [C,A,]2 C,C, F,4 | %4
 B,,2 B,,>B,, [B,,B,]2 [B,,B,][D,B,D] | [F,A,C]2 [F,CE][F,CE] [B,,B,]2 [B,,B,]2 | %6
 [E,B,]2 [E,G,][D,=B,] [C,C]2 [D,_B,][E,G,E] | [F,D]2 [F,,F,][F,,F,] [B,,F,]4 | %8
 [B,,B,]2 [B,,B,]2 [B,,B,]3 [B,,B,] | [B,,B,][B,,B,][B,,B,][B,,B,] [B,,B,]>[B,,B,] [B,,B,]2 | %10
 [F,A,E]2 [F,A,E]2 [F,A,E]3 [F,A,F] | [F,B,F][F,A,F][F,B,F][F,A,F] [F,A,E]>[F,B,D] [F,CF]2 | %12
 B,,2 [B,,B,]>[B,,B,] [B,,B,]2 [D,B,]2 | [E,B,]2 [E,G,]>[D,=B,] [C,C]2 [E,G,E]2 | %14
 [F,D]3 [F,E] [F,D][F,D] [F,F]>[F,E] | [F,D]2 [F,,F,]2 [B,,F,]4 |] %16

